X: 54
M: C|
L: 1/8
K: Ador
a |\
|: ^g |\
a2 e<a ^c<a e>f | g2 d<g B<g d>^g |\
a2 e<a ^c<a e>f | (g/f/).e/.f/ g>B {B}A3^g |
a2 e<a ^c<a e>f | g<g d<g B<g d>^g |\
a<a e<a g<b e>f | (g/f/).e/.f/ g>B {B}A3 H|]

